X:144
T:Sail her ower the rafttrees
R:Reel
O:Shetland
M:4/4
K:G
D2| G2BG AGBG | DGBG Ggfg |1\
G2BG AGBG | G,A,B,C| DcBA :|2\
(3ddd d[df] d2cB | AGAB cBAF :|*
|:\
G2gg gage | (3ddd [df]d dgfe | \
(3ddd [d2f2] d2cB |\
AGAB cBAF :|**
